X:71
T:La marche de l'ouverture
C:Gino Lavoie
S:Gino Lavoie, La Grande Rencontre 2010
M:4/4
L:1/4
K:D
A/de |: ff/f/ gf | e&gt;Acd | e/e/c/e/ fe | d&gt;AFA | dd/d/ ed |1 
c&gt;dcB | AcBA | F&gt;Ade :|2 B3 d | c&gt;ABc | d&gt;edc |: 
B&gt;dcB | A&gt;dcd | ecde | f&gt;dcd | 
B&gt;dcB | A&gt;dcd | eABc |1 d&gt;edc :|1 d&gt;Ade |]

